X: 02131
T: THERE'S MUSIC IN THE BAG!
C: Bob McQuillen 1 Apr.'75
B: Bob's Note Book 1&2 #131
%R: hornpipe, shottish
Z: 2019 John Chambers <jc:trillian.mit.edu>
M: C
L: 1/8
K: G
G>A \
| B2d>c B>GG>A | B2d>c B>GG>B | A>GA>B c>de>f | g>a (3(gfe) d2 G>A |
| B2d>c B>GG>A | B2d>c B>GG>B | A>GA>B c>ed>c | B2G2 G2 :|
|: F>G \
| A>Bc>B A2D2 | A>Bc>B A2B>c | d>ed>c B>AG>A | B>cd>e d2g2 |
| a2a>g f>de>f | g>a (3(gfe) d2B>d | c>de>f g>de>c | B>GA>F G2 :|
%%begintext align
%% For all those who go in
%% the bag looking for the music.
%%endtext
%%begintext
%% Oh we think it's very nice that there is music
%% _____________ really great ____ in the bag.
%% _____________ jolly good
%% _____________ super neat
%% __ PEACHY -> peachy keen or KEEN
%%endtext

%%sep 1 1 500

%%sep 1 1 500

